X: 91
T: POLKA: Many a Wild Night
C: C: Trad.; S: Various
C: Set Leaders: Sophie, Anton
Z: Anton Zille ed.; ceolachan at The Session
N: https://thesession.org/members/26966/sets/99417
R: Polka
M: 2/4
L: 1/8
Q: 1/4=140
K: Dmaj
|:Ad dc/B/|AF FE/F/|GB BA|FD D>B|
Ad dc/B/|AF FE/F/|GE BA|1 D2 D>B:|2 D2 D2||
dA/d/ fa|ge ed|cA/c/ eg|fd dA|
dA/d/ fa|ge ed|ce ba|d2 dA|
dA/d/ fa|ge ed|c/B/A/B/ c/d/e/g/|fd dA|
dA/d/ fa|ge ed|ce ba|d2 d2||

